X:922
T:Reel 922
M:4/4
K:Emin
L:1/8
A|B2Bc BGFE|AFDE FGAF|B2Bc BAGB|dcBA GEEF|GEBE GABG|A2DE FGAF|BABd Bdef|dBAF GEE|d|e2ed egfe|d2Bc defd|edef g2fe|dBAF FEEz|edBd eded|edfe dfef|g2fe dcdB|AFdF GEE2|
